X:1
T:Loch Garman
M:4/4
L:1/8
R:hornpipe
K:G
Bc | dBGB cAFA | G2GF GABc | dg~g2 efge | dBGB A2Bc |
dBGB cAFA | G2GF GABc | dg~g2 ecAF | G2GF G2 ::
(3ABc | dg~g2 eg~g2 | dg~g2 eg~g2 | dg~g2 efge | dBGB A2Bc |
dBGB cAFA | G2GF GABc | dg~g2 ecAF | G2GF G2 :|
